!! Isochronous pitch passage.
!! Bass-line.
!! From J.S. Bach, Brandenburg Concerto No. 2, 2nd movement, measure 43ff.
!! Basses
!! 3/4 meter
**kern	**metpos
*M3/4	*M3/4
*tb8	*tb8
=43	=43
8GG	1
8d	3
8B-	2
8d	3
8G	2
8B-	3
=44	=44
8C#	1
8E	3
8AA	2
8C#	3
8D	2
8GG	3
=45	=45
8AA	1
8E	3
8C#	2
8E	3
8AA	2
8C#	3
=46	=46
8DD	1
8A	3
8F	2
8A	3
8D	2
8F	3
=47	=47
8AA	1
8E	3
8C#	2
8E	3
8AA	2
8C#	3
=48	=48
8DD	1
8A	3
8F	2
8A	3
8D	2
8F	3
=49	=49
8AA	1
8E	3
8C#	2
8E	3
8AA	2
8C#	3
=50	=50
8DD	1
8A	3
8F#	2
8A	3
8D	2
8F#	3
=51	=51
8GG	1
8d	3
8Bn	2
8d	3
8G	2
8B	3
=52	=52
8C	1
8G	3
8E	2
8G	3
8C	2
8E	3
=53	=53
8FF	1
8c	3
8A	2
8c	3
8F	2
8A	3
=54	=54
8BB-	1
8F	3
8D	2
8F	3
8BB-	2
8D	3
=55	=55
8EE	1
8B-	3
8G	2
8B-	3
8E	2
8G	3
=56	=56
8AA	1
8E	3
8C#	2
8E	3
8AA	2
8C#	3
=57	=57
8DD	1
8A	3
8F	2
8A	3
8D	2
8F	3
=58	=58
8G	1
8B-	3
8E	2
8G	3
8C	2
8E	3
=59	=59
8F	1
8A	3
8D	2
8F	3
8BB-	2
8D	3
=60	=60
8E	1
8G	3
8C#	2
8E	3
8AA	2
8A	3
=61	=61
8D	1
8F	3
8BB-	2
8D	3
8GG	2
8EE	3
=62	=62
8AA	1
8GG	3
8r	2
8r	3
8r	2
8r	3
=63	=63
*-	*-
